src/16/actions/view-presentation.svg

<svg xmlns="http://www.w3.org/2000/svg" viewBox="0 0 16 16"><path d="M2 2v9h4v2H5v1h6v-1h-1v-2h4V2H2zm1 1h10v7H3V3zm4 1v5l3-2.5L7 4zm0 7h2v2H7v-2z" fill="currentColor" color="#5d656b"/></svg>

<svg xmlns="http://www.w3.org/2000/svg" viewBox="0 0 16 16">
  <defs id="defs3051">
    <style type="text/css" id="current-color-scheme">
      .ColorScheme-Text {
        color:#5d656b;
      }
      </style>
  </defs>
 <path style="fill:currentColor;fill-opacity:1;stroke:none" 
       d="M 2 2 L 2 11 L 6 11 L 6 13 L 5 13 L 5 14 L 11 14 L 11 13 L 10 13 L 10 11 L 14 11 L 14 2 L 2 2 z M 3 3 L 13 3 L 13 10 L 3 10 L 3 3 z M 7 4 L 7 9 L 10 6.5 L 7 4 z M 7 11 L 9 11 L 9 13 L 7 13 L 7 11 z "
     class="ColorScheme-Text"
     />
</svg>
